!!! OTL: A-, Wa^,Ri\,Gu^,Li^
!!! YEC: COpyright 2001, Chia-wei Lee
!! Vor Voice Only
**kern	**silbe
*clefG2	*LXinhua
*D:	*ping-ying
*M3/8	*
=1	=1
4e	Wo^
16e	Qi/
16e	Zhi
=2	=2
4e	Ma^
8a	Er/
=3	=3
8b	Chang\
8.dd	Qi^
16b	|
=4	=4
(8cc#	Ge-
8a	|
8b)	|
=5	=5
8g	Zou^
8f#	Guo\
8e	Le
=6	=6
(8g	Yi-
8.f#	|
16d)	|
=7	=7
[4.e	Li/
=8	=8
4e]	|
8r	.
=9	=9
8e	Kan\
8a	Jian\
8b	Le
=10	+10
8ee	Mei^
8dd	Li\
8cc#	De
=11	=11
8a	A-
16dd.	Wa^
32dd	Ri\
8cc#	Gu^
=12	=12
[4.b	Li^
=13	=13
4b]	|
8r	.
=14	=14
4dd	Qi/
16b	Zhai-
16b	De
=15	=15
8cc#	Sui\
8a	|
8b	Yue\
=16	=16
8g	Sh\
8f#	Zhe\
8e	Yian\
=17	=17
(8g	Yie/
8.f#	|
16d)	|
=18	=18
4.e	Re\
*-	*-
